report_00007_2020-12-11T15:55:29.892Z/network-server-latency/comparison/line/3_vs_4.svg

<svg width="640" height="500" xmlns="http://www.w3.org/2000/svg" xmlns:xlink="http://www.w3.org/1999/xlink"><path fill="#fff" d="M0 0h640v500H0z"/><defs><path id="d" stroke-width=".222" stroke="currentColor" d="M-1-1h2v2h-2z"/><path id="b" stroke-width=".222" stroke="currentColor" d="M0-1.33l-1.33 2h2.66z"/><path id="f" stroke-width=".222" stroke="currentColor" d="M0 1.33L1.265.411.782-1.067l-1.564-.009-.483 1.487z"/><use xlink:href="#b" id="c" stroke="currentColor" transform="rotate(180)"/><use xlink:href="#d" id="e" stroke="currentColor" transform="rotate(45)"/><circle id="a" stroke-width=".222" stroke="currentColor" cx="0" cy="0" r="1"/></defs><g fill="none" color="#000" stroke="currentColor"><path stroke="#000" d="M45.6 400.7h9m560.4 0h-9"/><text transform="translate(37.3 404.6)" stroke="none" fill="#000" font-family="Arial" font-size="12" text-anchor="end"><tspan>5</tspan></text></g><g fill="none" color="#000" stroke="currentColor"><path stroke="#000" d="M45.6 343h9m560.4 0h-9"/><text transform="translate(37.3 346.9)" stroke="none" fill="#000" font-family="Arial" font-size="12" text-anchor="end"><tspan>6</tspan></text></g><g fill="none" color="#000" stroke="currentColor"><path stroke="#000" d="M45.6 285.4h9m560.4 0h-9"/><text transform="translate(37.3 289.3)" stroke="none" fill="#000" font-family="Arial" font-size="12" text-anchor="end"><tspan>7</tspan></text></g><g fill="none" color="#000" stroke="currentColor"><path stroke="#000" d="M45.6 227.7h9m560.4 0h-9"/><text transform="translate(37.3 231.6)" stroke="none" fill="#000" font-family="Arial" font-size="12" text-anchor="end"><tspan>8</tspan></text></g><g fill="none" color="#000" stroke="currentColor"><path stroke="#000" d="M45.6 170.1h9m560.4 0h-9"/><text transform="translate(37.3 174)" stroke="none" fill="#000" font-family="Arial" font-size="12" text-anchor="end"><tspan>9</tspan></text></g><g fill="none" color="#000" stroke="currentColor"><path stroke="#000" d="M45.6 112.4h9m560.4 0h-9"/><text transform="translate(37.3 116.3)" stroke="none" fill="#000" font-family="Arial" font-size="12" text-anchor="end"><tspan>10</tspan></text></g><g fill="none" color="#000" stroke="currentColor"><path stroke="#000" d="M45.6 54.8h9m560.4 0h-9"/><text transform="translate(37.3 58.7)" stroke="none" fill="#000" font-family="Arial" font-size="12" text-anchor="end"><tspan>11</tspan></text></g><g fill="none" color="#000" stroke="currentColor"><path stroke="#000" d="M45.6 446v-9m0-418.9v9"/><text transform="translate(45.6 467.9)" stroke="none" fill="#000" font-family="Arial" font-size="12" text-anchor="middle"><tspan>0</tspan></text></g><g fill="none" color="#000" stroke="currentColor"><path stroke="#000" d="M103.1 446v-9m0-418.9v9"/><text transform="translate(103.1 467.9)" stroke="none" fill="#000" font-family="Arial" font-size="12" text-anchor="middle"><tspan>10</tspan></text></g><g fill="none" color="#000" stroke="currentColor"><path stroke="#000" d="M160.6 446v-9m0-418.9v9"/><text transform="translate(160.6 467.9)" stroke="none" fill="#000" font-family="Arial" font-size="12" text-anchor="middle"><tspan>20</tspan></text></g><g fill="none" color="#000" stroke="currentColor"><path stroke="#000" d="M218.1 446v-9m0-418.9v9"/><text transform="translate(218.1 467.9)" stroke="none" fill="#000" font-family="Arial" font-size="12" text-anchor="middle"><tspan>30</tspan></text></g><g fill="none" color="#000" stroke="currentColor"><path stroke="#000" d="M275.7 446v-9m0-418.9v9"/><text transform="translate(275.7 467.9)" stroke="none" fill="#000" font-family="Arial" font-size="12" text-anchor="middle"><tspan>40</tspan></text></g><g fill="none" color="#000" stroke="currentColor"><path stroke="#000" d="M333.2 446v-9m0-418.9v9"/><text transform="translate(333.2 467.9)" stroke="none" fill="#000" font-family="Arial" font-size="12" text-anchor="middle"><tspan>50</tspan></text></g><g fill="none" color="#000" stroke="currentColor"><path stroke="#000" d="M390.7 446v-9m0-418.9v9"/><text transform="translate(390.7 467.9)" stroke="none" fill="#000" font-family="Arial" font-size="12" text-anchor="middle"><tspan>60</tspan></text></g><g fill="none" color="#000" stroke="currentColor"><path stroke="#000" d="M448.2 446v-9m0-418.9v9"/><text transform="translate(448.2 467.9)" stroke="none" fill="#000" font-family="Arial" font-size="12" text-anchor="middle"><tspan>70</tspan></text></g><g fill="none" color="#000" stroke="currentColor"><path stroke="#000" d="M505.7 446v-9m0-418.9v9"/><text transform="translate(505.7 467.9)" stroke="none" fill="#000" font-family="Arial" font-size="12" text-anchor="middle"><tspan>80</tspan></text></g><g fill="none" color="#000" stroke="currentColor"><path stroke="#000" d="M563.2 446v-9m0-418.9v9"/><text transform="translate(563.2 467.9)" stroke="none" fill="#000" font-family="Arial" font-size="12" text-anchor="middle"><tspan>90</tspan></text></g><path stroke="#000" d="M45.6 18.1V446H615V18.1H45.6z" fill="none" color="#000"/><text transform="translate(271.5 485.9)" stroke="none" fill="#000" font-family="Arial" font-size="12" text-anchor="end" color="#000"><tspan>pages+cached+nointeractive</tspan></text><path stroke="#9400D3" d="M279.8 482H322M45.6 275.2l5.8 64.8 5.7 31.2 5.8-9.7 5.7-14.9 5.8-25.3L80.1 200l5.8 207.4 5.7-243.7 5.8 164.4 5.7 45.4 5.8.3 5.7-20 5.8-17.3 5.7 30.5 5.8-31.8 5.7 64.6 5.8-141.9 5.7-67.2 5.8 9.4 5.7 169 5.8-21.9 5.7-176.1 5.8 55.5 5.7 157.7 5.8-158.5 5.7 160.9 5.8-193.8 5.7 164.7 5.8 9.2 5.7-37.5 5.8 66.6 5.7-52.2 5.8-54.9 5.8 85.4 5.7-60 5.8 28.6 5.7 9 5.8 18.6 5.7 13.2 5.8-37.1 5.7-1.9 5.8 37.7 5.7-51.6 5.8 27.9 5.7-74.8 5.8 55.6 5.7 32.8 5.8-2.1 5.7-4.4 5.8 17.1 5.7-22.1 5.8-131.9 5.7 41 5.8 107.6 5.7 6.5 5.8-52.2 5.7 15.8 5.8-164.1 5.7 198.3 5.8-43.3 5.7 20.4 5.8 35.4 5.7-162.7 5.8 108.5 5.7 41 5.8-52.8 5.8 57.2 5.7-30.3 5.8 8 5.7 44.5 5.8-28.2 5.7-4.4 5.8-228.3 5.7 74 5.8 167.1 5.7-23.2 5.8-15.9 5.7-174.1 5.8 51 5.7 189.2 5.8-49.7 5.7-31 5.8 50 5.7 33.5 5.8-73.2 5.7 33.7 5.8-260.8 5.7 265 5.8-13.6 5.7-62.2 5.8-154.9 5.7 189.2 5.8 52.1 5.7-144.6 5.8 154 5.7-11.1 5.8-23.2 5.7 8.5 5.8-43.6" fill="none" color="#000"/><text transform="translate(546.1 485.9)" stroke="none" fill="#000" font-family="Arial" font-size="12" text-anchor="end" color="#000"><tspan>pages+cached+noadtech</tspan></text><path stroke="#009E73" d="M554.4 482h42.2m-551-214.8l5.8-37.9 5.7 37.3 5.8 34.7 5.7-54.6 5.8 14.1 5.7 17.5 5.8-31.2 5.7-43.9L97.4 326l5.7-82.4 5.8 83.8 5.7-51.6 5.8-35.2 5.7-111.3 5.8 74.9 5.7 106.8 5.8-32.5 5.7-47.3 5.8-32.9 5.7 16.6 5.8 54.1 5.7 64.7 5.8-78.6 5.7 92.8 5.8-46 5.7-1 5.8-75.5 5.7 78.9 5.8 29.2 5.7-137 5.8 102.8 5.7-19.8 5.8-8.6 5.8 9.5 5.7-65.9 5.8 37.2 5.7 62.8 5.8-32.6 5.7 44.5 5.8-14.2 5.7-58 5.8 27.4 5.7-47.3 5.8 43.5 5.7-41.3 5.8 8.9 5.7 25.2 5.8 40.7 5.7-10.2 5.8-76.2 5.7 28 5.8-25.2 5.7 65.6 5.8-.3 5.7-61.5 5.8 25.7 5.7 32.3 5.8-91.9 5.7-171.3 5.8 174.7 5.7 4.4 5.8 232.4 5.7-123.7 5.8-38.5 5.7 1.1 5.8-32.1 5.8 72.9 5.7 17.5 5.8-27.8 5.7-45.1 5.8-4.6 5.7 125 5.8-110.3 5.7-28.9 5.8 30.5 5.7-92.6 5.8 140.5 5.7 1.2 5.8-27.5 5.7-43.8 5.8 152.1 5.7-95.7 5.8-108.1 5.7 57.3 5.8 14 5.7 87.6 5.8-5.5 5.7-79.6 5.8-58.9 5.7 137.8 5.8-129.4 5.7 158.9 5.8-81.2 5.7 49.4 5.8-154.5 5.7 153.9 5.8 18.8 5.7-126.8 5.8 40.4" fill="none" color="#000"/><g fill="none" color="#000" stroke="currentColor"><path stroke="#000" d="M45.6 18.1V446H615V18.1H45.6z"/></g></svg>

<?xml version="1.0" encoding="utf-8"  standalone="no"?>
<svg 
 width="640" height="500"
 viewBox="0 0 640 500"
 xmlns="http://www.w3.org/2000/svg"
 xmlns:xlink="http://www.w3.org/1999/xlink"
>

<title>Gnuplot</title>
<desc>Produced by GNUPLOT 5.4 patchlevel 0 </desc>

<g id="gnuplot_canvas">

<rect x="0" y="0" width="640" height="500" fill="#ffffff"/>
<defs>

	<circle id='gpDot' r='0.5' stroke-width='0.5' stroke='currentColor'/>
	<path id='gpPt0' stroke-width='0.222' stroke='currentColor' d='M-1,0 h2 M0,-1 v2'/>
	<path id='gpPt1' stroke-width='0.222' stroke='currentColor' d='M-1,-1 L1,1 M1,-1 L-1,1'/>
	<path id='gpPt2' stroke-width='0.222' stroke='currentColor' d='M-1,0 L1,0 M0,-1 L0,1 M-1,-1 L1,1 M-1,1 L1,-1'/>
	<rect id='gpPt3' stroke-width='0.222' stroke='currentColor' x='-1' y='-1' width='2' height='2'/>
	<rect id='gpPt4' stroke-width='0.222' stroke='currentColor' fill='currentColor' x='-1' y='-1' width='2' height='2'/>
	<circle id='gpPt5' stroke-width='0.222' stroke='currentColor' cx='0' cy='0' r='1'/>
	<use xlink:href='#gpPt5' id='gpPt6' fill='currentColor' stroke='none'/>
	<path id='gpPt7' stroke-width='0.222' stroke='currentColor' d='M0,-1.33 L-1.33,0.67 L1.33,0.67 z'/>
	<use xlink:href='#gpPt7' id='gpPt8' fill='currentColor' stroke='none'/>
	<use xlink:href='#gpPt7' id='gpPt9' stroke='currentColor' transform='rotate(180)'/>
	<use xlink:href='#gpPt9' id='gpPt10' fill='currentColor' stroke='none'/>
	<use xlink:href='#gpPt3' id='gpPt11' stroke='currentColor' transform='rotate(45)'/>
	<use xlink:href='#gpPt11' id='gpPt12' fill='currentColor' stroke='none'/>
	<path id='gpPt13' stroke-width='0.222' stroke='currentColor' d='M0,1.330 L1.265,0.411 L0.782,-1.067 L-0.782,-1.076 L-1.265,0.411 z'/>
	<use xlink:href='#gpPt13' id='gpPt14' fill='currentColor' stroke='none'/>
	<filter id='textbox' filterUnits='objectBoundingBox' x='0' y='0' height='1' width='1'>
	  <feFlood flood-color='#FFFFFF' flood-opacity='1' result='bgnd'/>
	  <feComposite in='SourceGraphic' in2='bgnd' operator='atop'/>
	</filter>
	<filter id='greybox' filterUnits='objectBoundingBox' x='0' y='0' height='1' width='1'>
	  <feFlood flood-color='lightgrey' flood-opacity='1' result='grey'/>
	  <feComposite in='SourceGraphic' in2='grey' operator='atop'/>
	</filter>
</defs>
<g fill="none" color="#FFFFFF" stroke="black" stroke-width="1.00" stroke-linecap="butt" stroke-linejoin="miter">
</g>
<g fill="none" color="black" stroke="currentColor" stroke-width="1.00" stroke-linecap="butt" stroke-linejoin="miter">
	<path stroke='black'  d='M45.6,400.7 L54.6,400.7 M615.0,400.7 L606.0,400.7  '/>	<g transform="translate(37.3,404.6)" stroke="none" fill="black" font-family="Arial" font-size="12.00"  text-anchor="end">
		<text><tspan font-family="Arial" > 5</tspan></text>
	</g>
</g>
<g fill="none" color="black" stroke="currentColor" stroke-width="1.00" stroke-linecap="butt" stroke-linejoin="miter">
	<path stroke='black'  d='M45.6,343.0 L54.6,343.0 M615.0,343.0 L606.0,343.0  '/>	<g transform="translate(37.3,346.9)" stroke="none" fill="black" font-family="Arial" font-size="12.00"  text-anchor="end">
		<text><tspan font-family="Arial" > 6</tspan></text>
	</g>
</g>
<g fill="none" color="black" stroke="currentColor" stroke-width="1.00" stroke-linecap="butt" stroke-linejoin="miter">
	<path stroke='black'  d='M45.6,285.4 L54.6,285.4 M615.0,285.4 L606.0,285.4  '/>	<g transform="translate(37.3,289.3)" stroke="none" fill="black" font-family="Arial" font-size="12.00"  text-anchor="end">
		<text><tspan font-family="Arial" > 7</tspan></text>
	</g>
</g>
<g fill="none" color="black" stroke="currentColor" stroke-width="1.00" stroke-linecap="butt" stroke-linejoin="miter">
	<path stroke='black'  d='M45.6,227.7 L54.6,227.7 M615.0,227.7 L606.0,227.7  '/>	<g transform="translate(37.3,231.6)" stroke="none" fill="black" font-family="Arial" font-size="12.00"  text-anchor="end">
		<text><tspan font-family="Arial" > 8</tspan></text>
	</g>
</g>
<g fill="none" color="black" stroke="currentColor" stroke-width="1.00" stroke-linecap="butt" stroke-linejoin="miter">
	<path stroke='black'  d='M45.6,170.1 L54.6,170.1 M615.0,170.1 L606.0,170.1  '/>	<g transform="translate(37.3,174.0)" stroke="none" fill="black" font-family="Arial" font-size="12.00"  text-anchor="end">
		<text><tspan font-family="Arial" > 9</tspan></text>
	</g>
</g>
<g fill="none" color="black" stroke="currentColor" stroke-width="1.00" stroke-linecap="butt" stroke-linejoin="miter">
	<path stroke='black'  d='M45.6,112.4 L54.6,112.4 M615.0,112.4 L606.0,112.4  '/>	<g transform="translate(37.3,116.3)" stroke="none" fill="black" font-family="Arial" font-size="12.00"  text-anchor="end">
		<text><tspan font-family="Arial" > 10</tspan></text>
	</g>
</g>
<g fill="none" color="black" stroke="currentColor" stroke-width="1.00" stroke-linecap="butt" stroke-linejoin="miter">
	<path stroke='black'  d='M45.6,54.8 L54.6,54.8 M615.0,54.8 L606.0,54.8  '/>	<g transform="translate(37.3,58.7)" stroke="none" fill="black" font-family="Arial" font-size="12.00"  text-anchor="end">
		<text><tspan font-family="Arial" > 11</tspan></text>
	</g>
</g>
<g fill="none" color="black" stroke="currentColor" stroke-width="1.00" stroke-linecap="butt" stroke-linejoin="miter">
	<path stroke='black'  d='M45.6,446.0 L45.6,437.0 M45.6,18.1 L45.6,27.1  '/>	<g transform="translate(45.6,467.9)" stroke="none" fill="black" font-family="Arial" font-size="12.00"  text-anchor="middle">
		<text><tspan font-family="Arial" > 0</tspan></text>
	</g>
</g>
<g fill="none" color="black" stroke="currentColor" stroke-width="1.00" stroke-linecap="butt" stroke-linejoin="miter">
	<path stroke='black'  d='M103.1,446.0 L103.1,437.0 M103.1,18.1 L103.1,27.1  '/>	<g transform="translate(103.1,467.9)" stroke="none" fill="black" font-family="Arial" font-size="12.00"  text-anchor="middle">
		<text><tspan font-family="Arial" > 10</tspan></text>
	</g>
</g>
<g fill="none" color="black" stroke="currentColor" stroke-width="1.00" stroke-linecap="butt" stroke-linejoin="miter">
	<path stroke='black'  d='M160.6,446.0 L160.6,437.0 M160.6,18.1 L160.6,27.1  '/>	<g transform="translate(160.6,467.9)" stroke="none" fill="black" font-family="Arial" font-size="12.00"  text-anchor="middle">
		<text><tspan font-family="Arial" > 20</tspan></text>
	</g>
</g>
<g fill="none" color="black" stroke="currentColor" stroke-width="1.00" stroke-linecap="butt" stroke-linejoin="miter">
	<path stroke='black'  d='M218.1,446.0 L218.1,437.0 M218.1,18.1 L218.1,27.1  '/>	<g transform="translate(218.1,467.9)" stroke="none" fill="black" font-family="Arial" font-size="12.00"  text-anchor="middle">
		<text><tspan font-family="Arial" > 30</tspan></text>
	</g>
</g>
<g fill="none" color="black" stroke="currentColor" stroke-width="1.00" stroke-linecap="butt" stroke-linejoin="miter">
	<path stroke='black'  d='M275.7,446.0 L275.7,437.0 M275.7,18.1 L275.7,27.1  '/>	<g transform="translate(275.7,467.9)" stroke="none" fill="black" font-family="Arial" font-size="12.00"  text-anchor="middle">
		<text><tspan font-family="Arial" > 40</tspan></text>
	</g>
</g>
<g fill="none" color="black" stroke="currentColor" stroke-width="1.00" stroke-linecap="butt" stroke-linejoin="miter">
	<path stroke='black'  d='M333.2,446.0 L333.2,437.0 M333.2,18.1 L333.2,27.1  '/>	<g transform="translate(333.2,467.9)" stroke="none" fill="black" font-family="Arial" font-size="12.00"  text-anchor="middle">
		<text><tspan font-family="Arial" > 50</tspan></text>
	</g>
</g>
<g fill="none" color="black" stroke="currentColor" stroke-width="1.00" stroke-linecap="butt" stroke-linejoin="miter">
	<path stroke='black'  d='M390.7,446.0 L390.7,437.0 M390.7,18.1 L390.7,27.1  '/>	<g transform="translate(390.7,467.9)" stroke="none" fill="black" font-family="Arial" font-size="12.00"  text-anchor="middle">
		<text><tspan font-family="Arial" > 60</tspan></text>
	</g>
</g>
<g fill="none" color="black" stroke="currentColor" stroke-width="1.00" stroke-linecap="butt" stroke-linejoin="miter">
	<path stroke='black'  d='M448.2,446.0 L448.2,437.0 M448.2,18.1 L448.2,27.1  '/>	<g transform="translate(448.2,467.9)" stroke="none" fill="black" font-family="Arial" font-size="12.00"  text-anchor="middle">
		<text><tspan font-family="Arial" > 70</tspan></text>
	</g>
</g>
<g fill="none" color="black" stroke="currentColor" stroke-width="1.00" stroke-linecap="butt" stroke-linejoin="miter">
	<path stroke='black'  d='M505.7,446.0 L505.7,437.0 M505.7,18.1 L505.7,27.1  '/>	<g transform="translate(505.7,467.9)" stroke="none" fill="black" font-family="Arial" font-size="12.00"  text-anchor="middle">
		<text><tspan font-family="Arial" > 80</tspan></text>
	</g>
</g>
<g fill="none" color="black" stroke="currentColor" stroke-width="1.00" stroke-linecap="butt" stroke-linejoin="miter">
	<path stroke='black'  d='M563.2,446.0 L563.2,437.0 M563.2,18.1 L563.2,27.1  '/>	<g transform="translate(563.2,467.9)" stroke="none" fill="black" font-family="Arial" font-size="12.00"  text-anchor="middle">
		<text><tspan font-family="Arial" > 90</tspan></text>
	</g>
</g>
<g fill="none" color="black" stroke="currentColor" stroke-width="1.00" stroke-linecap="butt" stroke-linejoin="miter">
</g>
<g fill="none" color="black" stroke="currentColor" stroke-width="1.00" stroke-linecap="butt" stroke-linejoin="miter">
	<path stroke='black'  d='M45.6,18.1 L45.6,446.0 L615.0,446.0 L615.0,18.1 L45.6,18.1 Z  '/></g>
<g fill="none" color="black" stroke="currentColor" stroke-width="1.00" stroke-linecap="butt" stroke-linejoin="miter">
</g>
	<g id="gnuplot_plot_1" ><title>pages+cached+nointeractive</title>
<g fill="none" color="black" stroke="currentColor" stroke-width="1.00" stroke-linecap="butt" stroke-linejoin="miter">
	<g transform="translate(271.5,485.9)" stroke="none" fill="black" font-family="Arial" font-size="12.00"  text-anchor="end">
		<text><tspan font-family="Arial" >pages+cached+nointeractive</tspan></text>
	</g>
</g>
<g fill="none" color="black" stroke="currentColor" stroke-width="1.00" stroke-linecap="butt" stroke-linejoin="miter">
	<path stroke='rgb(148,   0, 211)'  d='M279.8,482.0 L322.0,482.0 M45.6,275.2 L51.4,340.0 L57.1,371.2 L62.9,361.5 L68.6,346.6 L74.4,321.3
		L80.1,200.0 L85.9,407.4 L91.6,163.7 L97.4,328.1 L103.1,373.5 L108.9,373.8 L114.6,353.8 L120.4,336.5
		L126.1,367.0 L131.9,335.2 L137.6,399.8 L143.4,257.9 L149.1,190.7 L154.9,200.1 L160.6,369.1 L166.4,347.2
		L172.1,171.1 L177.9,226.6 L183.6,384.3 L189.4,225.8 L195.1,386.7 L200.9,192.9 L206.6,357.6 L212.4,366.8
		L218.1,329.3 L223.9,395.9 L229.6,343.7 L235.4,288.8 L241.2,374.2 L246.9,314.2 L252.7,342.8 L258.4,351.8
		L264.2,370.4 L269.9,383.6 L275.7,346.5 L281.4,344.6 L287.2,382.3 L292.9,330.7 L298.7,358.6 L304.4,283.8
		L310.2,339.4 L315.9,372.2 L321.7,370.1 L327.4,365.7 L333.2,382.8 L338.9,360.7 L344.7,228.8 L350.4,269.8
		L356.2,377.4 L361.9,383.9 L367.7,331.7 L373.4,347.5 L379.2,183.4 L384.9,381.7 L390.7,338.4 L396.4,358.8
		L402.2,394.2 L407.9,231.5 L413.7,340.0 L419.4,381.0 L425.2,328.2 L431.0,385.4 L436.7,355.1 L442.5,363.1
		L448.2,407.6 L454.0,379.4 L459.7,375.0 L465.5,146.7 L471.2,220.7 L477.0,387.8 L482.7,364.6 L488.5,348.7
		L494.2,174.6 L500.0,225.6 L505.7,414.8 L511.5,365.1 L517.2,334.1 L523.0,384.1 L528.7,417.6 L534.5,344.4
		L540.2,378.1 L546.0,117.3 L551.7,382.3 L557.5,368.7 L563.2,306.5 L569.0,151.6 L574.7,340.8 L580.5,392.9
		L586.2,248.3 L592.0,402.3 L597.7,391.2 L603.5,368.0 L609.2,376.5 L615.0,332.9  '/></g>
	</g>
	<g id="gnuplot_plot_2" ><title>pages+cached+noadtech</title>
<g fill="none" color="black" stroke="currentColor" stroke-width="1.00" stroke-linecap="butt" stroke-linejoin="miter">
	<g transform="translate(546.1,485.9)" stroke="none" fill="black" font-family="Arial" font-size="12.00"  text-anchor="end">
		<text><tspan font-family="Arial" >pages+cached+noadtech</tspan></text>
	</g>
</g>
<g fill="none" color="black" stroke="currentColor" stroke-width="1.00" stroke-linecap="butt" stroke-linejoin="miter">
	<path stroke='rgb(  0, 158, 115)'  d='M554.4,482.0 L596.6,482.0 M45.6,267.2 L51.4,229.3 L57.1,266.6 L62.9,301.3 L68.6,246.7 L74.4,260.8
		L80.1,278.3 L85.9,247.1 L91.6,203.2 L97.4,326.0 L103.1,243.6 L108.9,327.4 L114.6,275.8 L120.4,240.6
		L126.1,129.3 L131.9,204.2 L137.6,311.0 L143.4,278.5 L149.1,231.2 L154.9,198.3 L160.6,214.9 L166.4,269.0
		L172.1,333.7 L177.9,255.1 L183.6,347.9 L189.4,301.9 L195.1,300.9 L200.9,225.4 L206.6,304.3 L212.4,333.5
		L218.1,196.5 L223.9,299.3 L229.6,279.5 L235.4,270.9 L241.2,280.4 L246.9,214.5 L252.7,251.7 L258.4,314.5
		L264.2,281.9 L269.9,326.4 L275.7,312.2 L281.4,254.2 L287.2,281.6 L292.9,234.3 L298.7,277.8 L304.4,236.5
		L310.2,245.4 L315.9,270.6 L321.7,311.3 L327.4,301.1 L333.2,224.9 L338.9,252.9 L344.7,227.7 L350.4,293.3
		L356.2,293.0 L361.9,231.5 L367.7,257.2 L373.4,289.5 L379.2,197.6 L384.9,26.3 L390.7,201.0 L396.4,205.4
		L402.2,437.8 L407.9,314.1 L413.7,275.6 L419.4,276.7 L425.2,244.6 L431.0,317.5 L436.7,335.0 L442.5,307.2
		L448.2,262.1 L454.0,257.5 L459.7,382.5 L465.5,272.2 L471.2,243.3 L477.0,273.8 L482.7,181.2 L488.5,321.7
		L494.2,322.9 L500.0,295.4 L505.7,251.6 L511.5,403.7 L517.2,308.0 L523.0,199.9 L528.7,257.2 L534.5,271.2
		L540.2,358.8 L546.0,353.3 L551.7,273.7 L557.5,214.8 L563.2,352.6 L569.0,223.2 L574.7,382.1 L580.5,300.9
		L586.2,350.3 L592.0,195.8 L597.7,349.7 L603.5,368.5 L609.2,241.7 L615.0,282.1  '/></g>
	</g>
<g fill="none" color="#FFFFFF" stroke="rgb(  0, 158, 115)" stroke-width="2.00" stroke-linecap="butt" stroke-linejoin="miter">
</g>
<g fill="none" color="black" stroke="currentColor" stroke-width="2.00" stroke-linecap="butt" stroke-linejoin="miter">
</g>
<g fill="none" color="black" stroke="black" stroke-width="1.00" stroke-linecap="butt" stroke-linejoin="miter">
</g>
<g fill="none" color="black" stroke="currentColor" stroke-width="1.00" stroke-linecap="butt" stroke-linejoin="miter">
	<path stroke='black'  d='M45.6,18.1 L45.6,446.0 L615.0,446.0 L615.0,18.1 L45.6,18.1 Z  '/></g>
<g fill="none" color="black" stroke="currentColor" stroke-width="1.00" stroke-linecap="butt" stroke-linejoin="miter">
</g>
</g>
</svg>
